outputs/icons/communication/person_search_round.svg

<svg xmlns="http://www.w3.org/2000/svg" width="1200" height="1200" fill="none"><g fill="#000" clip-path="url(#a)"><path d="M500 600c110.455 0 200-89.545 200-200 0-110.457-89.545-200-200-200-110.457 0-200 89.543-200 200 0 110.455 89.543 200 200 200M517.5 700.5C381 695.5 100 763.5 100 900v50c0 27.5 22.5 50 50 50h427c-123.5-138-61.5-294.5-59.5-299.5"/><path fill-rule="evenodd" d="M995.5 760c11 52.5-.5 101-24 141l92.5 93.5c19.5 19.5 19.5 51 0 70.5s-51 19.5-70.5 0l-93-93c-40 23.5-88.5 35-141 24-82-17-147-86-158-169-17.5-131.5 93.5-242 225-225 83 10.5 152 76 169 158M700 800c0 55 45 100 100 100s100-45 100-100-45-100-100-100-100 45-100 100"/></g><defs><clipPath id="a"><path fill="#fff" d="M0 0h1200v1200H0z"/></clipPath></defs></svg>

<svg width="1200" height="1200" viewBox="0 0 1200 1200" fill="none" xmlns="http://www.w3.org/2000/svg"><g clip-path="url(#clip0_225_2422)"><path fill-rule="evenodd" d="M500 600C610.455 600 700 510.455 700 400C700 289.543 610.455 200 500 200C389.543 200 300 289.543 300 400C300 510.455 389.543 600 500 600ZM517.5 700.5C381 695.5 100 763.5 100 900V950C100 977.5 122.5 1000 150 1000H577C453.5 862 515.5 705.5 517.5 700.5ZM995.5 760C1006.5 812.5 995 861 971.5 901L1064 994.5C1083.5 1014 1083.5 1045.5 1064 1065C1044.5 1084.5 1013 1084.5 993.5 1065L900.5 972C860.5 995.5 812 1007 759.5 996C677.5 979 612.5 910 601.5 827C584 695.5 695 585 826.5 602C909.5 612.5 978.5 678 995.5 760ZM700 800C700 855 745 900 800 900C855 900 900 855 900 800C900 745 855 700 800 700C745 700 700 745 700 800Z" fill="#1D1E23"/></g><defs><clipPath id="clip0_225_2422"><path width="24" fill="white" d="M0 0H1200V1200H0V0z"/></clipPath></defs></svg>
